public/assets/social-media/gmail.svg

<svg viewBox="0 0 25 25" fill="none" xmlns="http://www.w3.org/2000/svg">
<path d="M2.75 3.5C1.51562 3.5 0.505859 4.50781 0.5 5.74219C0.5 5.74219 0.5 5.74414 0.5 5.74609C0.5 5.74805 0.5 5.74805 0.5 5.75V19.25C0.5 20.4863 1.51367 21.5 2.75 21.5H22.25C23.4863 21.5 24.5 20.4863 24.5 19.25V5.75C24.5 5.74805 24.5 5.74805 24.5 5.74609C24.5 5.74414 24.5 5.74219 24.5 5.74219C24.4941 4.50781 23.4844 3.5 22.25 3.5H2.75ZM4.05078 4.5H20.9512L12.5 10.3906L4.05078 4.5ZM2.38672 4.55859L12.5 11.6094L22.6152 4.55859C23.127 4.71289 23.4961 5.17773 23.5 5.74414C23.498 5.84961 23.3906 6.06055 23.2344 6.23047C23.0762 6.40234 22.9219 6.50977 22.9219 6.50977L22.9199 6.51367L12.5 13.8887L2.08008 6.51367L2.07812 6.50977C2.07812 6.50977 1.92383 6.40234 1.76562 6.23047C1.60938 6.06055 1.50195 5.84961 1.5 5.74414C1.50391 5.17773 1.87305 4.71289 2.38672 4.55859ZM1.5 7.32617L1.50391 7.33008L1.50781 7.33203V7.33398L3 8.38867V20.5H2.75C2.05469 20.5 1.5 19.9453 1.5 19.25V7.32617ZM23.5 7.32617V19.25C23.5 19.9453 22.9453 20.5 22.25 20.5H22V8.38867L23.4922 7.33398V7.33203L23.5 7.32617ZM4 9.0957L12.5 15.1113L21 9.0957V20.5H4V9.0957Z" fill="black"/>
</svg>

<svg xmlns="http://www.w3.org/2000/svg" viewBox="0 0 25 25" fill="none" xmlns:v="https://vecta.io/nano"><path d="M2.75 3.5A2.26 2.26 0 0 0 .5 5.742V19.25a2.26 2.26 0 0 0 2.25 2.25h19.5a2.26 2.26 0 0 0 2.25-2.25V5.75a2.26 2.26 0 0 0-2.25-2.25H2.75zm1.301 1h16.9L12.5 10.391 4.051 4.5zm-1.664.059L12.5 11.609l10.115-7.051a1.24 1.24 0 0 1 .885 1.186c-.002.105-.109.316-.266.486s-.312.279-.312.279l-.002.004-10.42 7.375L2.08 6.514l-.002-.004s-.154-.107-.313-.279-.264-.381-.266-.486a1.24 1.24 0 0 1 .887-1.186zM1.5 7.326l.004.004.004.002v.002L3 8.389V20.5h-.25c-.695 0-1.25-.555-1.25-1.25V7.326zm22 0V19.25c0 .695-.555 1.25-1.25 1.25H22V8.389l1.492-1.055v-.002l.008-.006zM4 9.096l8.5 6.016L21 9.096V20.5H4V9.096z" fill="#000"/></svg>
